X: 997
T: Shuffle and cut
C: anon.
O: Ireland
B: Francis O'Neill: "The Dance Music of Ireland" (1907) no. 997
Z: Transcribed by Frank Nordberg - http://www.musicaviva.com
F: http://www.musicaviva.com/abc/tunes/ireland/oneill-1001/oneill-1001-099
7.abc
M: 9/8
L: 1/8
K: D
dBG FAF (E/F/G)E|=cEE E2B AFD|dBG FAF EGE|AFD D2B AFD:|(f/g/a)f (e/f/g)
e (B/c/d)B|
=cEE E2B AFD|(f/g/a)f (e/f/g)e (B/c/d)B|AFD D2B AFD:|G2e F2d E2D|=cEE
 E2B AFD|G2e F2d E2B|AFD D2B AFD:|
W:
W:
W: From Musica Viva - http://www.musicaviva.com
W: the Internet center for free sheet music downloads.


